X:6635
T:Gypsy Hornpipe
M:4/4
L:1/8
Q:1/4=124
C:Trad
R:hornpipe
K:G
d2|: g>fe>d e>dB>d|e>d (3efg B2 B>A | G>FG>A B>AB>d |e2 A2 A2 d2 |
g>fe>d e>dB>d|e>d (3efg B2 B>A|G>FG>A B>cB>A|1 G2 E2 E2 d2 \
:|2 G2 E2 E2 g>f|
|: e2 B2 B2 g>f|e2 B2 B2 g>f|e>de>f g>fg>a|b2 e2 e2 g>a|
b>ga>f g2 g>f|e>d (3efg B2 B>A|G>FG>A B>cB>A |1 G2 E2 E2 g>f \
:|2 G2 E2 E4||
